Sources/FrostedUI/Resources/Icons.xcassets/diceSize32.imageset/dice-size-32.svg

<svg
  width="32"
  height="32"
  viewBox="0 0 32 32"
  fill="none"
  xmlns="http://www.w3.org/2000/svg"
  data-fui-icon="true"
>
  <g clip-path="url(#clip0_622_179)">
    <path
      d="M5.92371 5.92373C5.35777 6.48967 5.03983 7.25725 5.03983 8.05761L5.03983 23.9424C5.03983 24.7427 5.35777 25.5103 5.92371 26.0763V26.0763C6.48966 26.6422 7.25724 26.9602 8.0576 26.9602L23.9424 26.9602C24.7427 26.9602 25.5103 26.6422 26.0763 26.0763V26.0763C26.6422 25.5103 26.9601 24.7427 26.9601 23.9424L26.9601 8.05761C26.9601 7.25725 26.6422 6.48967 26.0763 5.92373V5.92373C25.5103 5.35779 24.7427 5.03985 23.9424 5.03985L8.0576 5.03985C7.25724 5.03985 6.48966 5.35779 5.92371 5.92373V5.92373Z"
      stroke="currentColor"
      stroke-width="1.5"
      stroke-linecap="round"
      stroke-linejoin="round"
    />
    <path
      d="M17.2374 14.7626C17.9208 15.446 17.9208 16.554 17.2374 17.2374 16.554 17.9209 15.446 17.9209 14.7626 17.2374 14.0791 16.554 14.0791 15.446 14.7626 14.7626 15.446 14.0791 16.554 14.0791 17.2374 14.7626zM12.2877 9.81282C12.9711 10.4962 12.9711 11.6043 12.2877 12.2877 11.6043 12.9711 10.4962 12.9711 9.81282 12.2877 9.1294 11.6043 9.1294 10.4962 9.81282 9.81282 10.4962 9.1294 11.6043 9.1294 12.2877 9.81282zM9.81279 19.7123C10.4962 19.0289 11.6043 19.0289 12.2877 19.7123 12.9711 20.3957 12.9711 21.5038 12.2877 22.1872 11.6043 22.8706 10.4962 22.8706 9.81279 22.1872 9.12938 21.5038 9.12938 20.3957 9.81279 19.7123zM22.1872 19.7123C22.8706 20.3957 22.8706 21.5038 22.1872 22.1872 21.5037 22.8706 20.3957 22.8706 19.7123 22.1872 19.0289 21.5038 19.0289 20.3957 19.7123 19.7123 20.3957 19.0289 21.5037 19.0289 22.1872 19.7123zM19.7123 9.81282C20.3957 9.1294 21.5038 9.1294 22.1872 9.81282 22.8706 10.4962 22.8706 11.6043 22.1872 12.2877 21.5038 12.9711 20.3957 12.9711 19.7123 12.2877 19.0289 11.6043 19.0289 10.4962 19.7123 9.81282z"
      fill="currentColor"
    />
  </g>
  <defs>
    <clipPath id="clip0_622_179">
      <path fill="currentColor" d="M0 0H32V32H0z" />
    </clipPath>
  </defs>
</svg>

<svg xmlns="http://www.w3.org/2000/svg" width="32" height="32" fill="none" data-fui-icon="true" viewBox="0 0 32 32"><g clip-path="url(#a)"><path stroke="currentColor" stroke-linecap="round" stroke-linejoin="round" stroke-width="1.5" d="M5.924 5.924a3.02 3.02 0 0 0-.884 2.134v15.884c0 .8.318 1.568.884 2.134v0a3.02 3.02 0 0 0 2.134.884h15.884c.8 0 1.568-.318 2.134-.884v0a3.02 3.02 0 0 0 .884-2.134V8.058c0-.8-.318-1.568-.884-2.134v0a3.02 3.02 0 0 0-2.134-.884H8.058c-.8 0-1.568.318-2.134.884"/><path fill="currentColor" d="M17.237 14.763a1.75 1.75 0 1 1-2.474 2.474 1.75 1.75 0 0 1 2.474-2.474m-4.95-4.95a1.75 1.75 0 1 1-2.474 2.475 1.75 1.75 0 0 1 2.475-2.475m-2.474 9.9a1.75 1.75 0 1 1 2.475 2.474 1.75 1.75 0 0 1-2.475-2.475m12.374 0a1.75 1.75 0 1 1-2.475 2.474 1.75 1.75 0 0 1 2.475-2.475m-2.475-9.9a1.75 1.75 0 1 1 2.475 2.475 1.75 1.75 0 0 1-2.475-2.475"/></g><defs><clipPath id="a"><path fill="currentColor" d="M0 0h32v32H0z"/></clipPath></defs></svg>
